!!!COM: Palestrina, Giovanni Perluigi da
!!!OPR: Missa In duplicibus minoribus (I)
!!!OTL: Kyrie
**kern	**kern	**kern	**kern	**kern
*Ibass	*Itenor	*Itenor	*Icalto	*Icant
!Bassus	!Tenor 2	!Tenor 1	!Altus	!Cantus
*clefF4	*clefGv2	*clefGv2	*clefG2	*clefG2
*k[]	*k[]	*k[]	*k[]	*k[]
*E:phr	*E:phr	*E:phr	*E:phr	*E:phr
*M4/2	*M4/2	*M4/2	*M4/2	*M4/2
=1	=1	=1	=1	=1
0r	1E	0r	1r	0r
.	[1A	.	1A	.
=2	=2	=2	=2	=2
0r	2A]	0r	1.e	0r
.	2G	.	.	.
.	2A	.	.	.
.	2B	.	2d	.
=3	=3	=3	=3	=3
0r	2G	0r	2e	0r
.	2A	.	2f	.
.	2B	.	2d	.
.	2c	.	2e	.
=4	=4	=4	=4	=4
0r	2A	0r	2f	1r
.	4G	.	2.g	.
.	4F	.	.	.
.	4E	.	.	1e
.	4F	.	4f	.
.	4G	.	[2e	.
.	4E	.	.	.
=5	=5	=5	=5	=5
0r	1F	1A	2e]	1.a
.	.	.	2d	.
.	1E	[1e	2c	.
.	.	.	2B	2g
=6	=6	=6	=6	=6
0r	2r	2e]	2c	2a
.	2G	2d	2.B	2b
.	2E	2e	.	2g
.	.	.	4G	.
.	2D	2f	[2d	2a
=7	=7	=7	=7	=7
0r	2G	2d	4d]	2b
.	.	.	4G	.
.	2E	2e	2g	2.cc
.	1F	4A	2.c	.
.	.	4B	.	4b
.	.	4c	.	[2a
.	.	4A	4d	.
=8	=8	=8	=8	=8
1E	2E	1B	[0e	2a]
.	2B	.	.	2g#
[1A	2c	2A	.	1a
.	4A	[2c	.	.
.	4B	.	.	.
=9	=9	=9	=9	=9
2A]	4c	2c]	1e]	0r
.	4d	.	.	.
2G	1e	2B	.	.
2A	.	2c	1f	.
2B-	2d	2d	.	.
=10	=10	=10	=10	=10
2G	1e	2B-	1e	2r
2.A	.	1c	.	2a
.	2r	.	2.c	2e
4B	.	.	.	.
[2c	2e	2A	.	[2a
.	.	.	4d	.
=11	=11	=11	=11	=11
2c]	2A	0r	2e	2a]
2B-	1d	.	2d	2g
1A	.	.	2.e	1a
.	2c	.	.	.
.	.	.	4f#	.
=12	=12	=12	=12	=12
2G	2d	1r	1g	1b
2E	1e	.	.	.
[1c	.	2r	1r	2g
.	2A	2e	.	[2a
=13	=13	=13	=13	=13
2c]	2c	2A	0r	2a]
2B-	2G	1d	.	1g
1A	2r	.	.	.
.	[2c	2c	.	2f#
=14	=14	=14	=14	=14
1G	2c]	1d	1r	1g
.	2B-	.	.	.
1C	2G	2e	2r	1r
.	[2A	[2c	2e	.
=15	=15	=15	=15	=15
0r	2A]	4c]	2A	1e
.	.	4A	.	.
.	2G	2B	1e	.
.	1F	2c	.	2A
.	.	2A	2d	[2a
=16	=16	=16	=16	=16
2r	2E	1B	2.e	2a]
2E	2B	.	.	2g
.	.	.	4d	.
2AA	2c	2r	4e	2a
.	.	.	4f	.
[2E	2G	2B	[2g	2b
=17	=17	=17	=17	=17
2E]	2B	2E	4g]	2g
.	.	.	4f	.
2C	2c	2A	2e	1a
2D	4A	2F#	2d	.
.	2d	.	.	.
2E	.	2G	2G	[2g
.	4c#	.	.	.
=18	=18	=18	=18	=18
1D	2.d	1A	2r	2g]
.	.	.	1d	2f#
.	4c	.	.	.
1G	2B	2.G	.	1g
.	[2G	.	2B	.
.	.	4A	.	.
=19	=19	=19	=19	=19
0r	2G]	1B	2d	2r
.	2E	.	1e	1g
.	2G	1r	.	.
.	2A	.	2c	2e
=20	=20	=20	=20	=20
0r	2B	2r	2d	1g
.	2c	1c	2e	.
.	[1F	.	2.f	1a
.	.	2A	.	.
.	.	.	4g	.
=21	=21	=21	=21	=21
0r	1F]	2c	4a	1.f
.	.	.	4g	.
.	.	2d	4f	.
.	.	.	4e	.
.	1r	2B-	2d	.
.	.	2c	[2c	2e
=22	=22	=22	=22	=22
1r	1r	1G	2c]	1d
.	.	.	2B	.
2r	2r	1C	2c	2.e
[2G	2c	.	2e	.
.	.	.	.	4f
=23	=23	=23	=23	=23
2G]	2B	2r	2d	0g
2E	2e	1c	2G	.
1G	1d	.	2r	.
.	.	2B	2g	.
=24	=24	=24	=24	=24
1A	0c	2c	2e	2r
.	.	4F	1f	1cc
.	.	4G	.	.
[1F	.	4A	.	.
.	.	4B	.	.
.	.	[2c	[2a	2a
=25	=25	=25	=25	=25
2F]	1r	4c]	2a]	1cc
.	.	4B	.	.
2E	.	2G	1g	.
1D	2r	1A	.	2.dd
.	[2d	.	2f#	.
.	.	.	.	4cc
=26	=26	=26	=26	=26
2.G	2d]	2B	2g	4b
.	.	.	.	4a
.	2B	2.d	2G	2.b
4F	.	.	.	.
2D	1d	.	1A	.
.	.	4c	.	4a
2F	.	2A	.	[2a
=27	=27	=27	=27	=27
1E	1e	2c	2r	2a]
.	.	2.B	1e	2g#
[1AA	[1c	.	.	[1a
.	.	4A	.	.
.	.	[2A	2e	.
=28	=28	=28	=28	=28
2AA]	2c]	2A]	1e	2a]
2E	2B	2G#	.	2b
1AA	1A	1A	1e	1cc
=29	=29	=29	=29	=29
[0E	[0B	[0G#	[0e	[0b
=30	=30	=30	=30	=30
0E]	0B]	0G#]	0e]	0b]
=31	=31	=31	=31	=31
0r	0r	0r	1B	0r
.	.	.	2G	.
.	.	.	2A	.
=32	=32	=32	=32	=32
0r	0r	0r	2.c	1e
.	.	.	4d	.
.	.	.	2e	2c
.	.	.	2f	2d
=33	=33	=33	=33	=33
0r	0r	0r	2d	2f
.	.	.	2e	2g
.	.	.	4A	1a
.	.	.	4B	.
.	.	.	4c	.
.	.	.	4d	.
=34	=34	=34	=34	=34
1E	0r	0r	4e	2g
.	.	.	4f	.
.	.	.	2g	2b
2C	.	.	2e	2cc
2D	.	.	[2f	[2a
=35	=35	=35	=35	=35
2F	0r	0r	4f]	2a]
.	.	.	4e	.
2G	.	.	1d	4g
.	.	.	.	4f
1A	.	.	.	2.e
.	.	.	2c	.
.	.	.	.	4f
=36	=36	=36	=36	=36
2.G	1B	0r	2d	4g
.	.	.	.	4a
.	.	.	4G	1g
4F	.	.	4A	.
2E	2G	.	4B	.
.	.	.	4c	.
2D	2A	.	2d	2f
=37	=37	=37	=37	=37
2A	2c	0r	2c	2e
2F	2d	.	4B	1a
.	.	.	4A	.
1E	2.e	.	1B	.
.	.	.	.	2g#
.	4d	.	.	.
=38	=38	=38	=38	=38
1AA	4c	1E	2A	2.a
.	4B	.	.	.
.	2.A	.	1e	.
.	.	.	.	8g
.	.	.	.	8f
1r	.	2C	.	2e
.	4G	.	.	.
.	4F	2D	[2d	[2f
.	4E	.	.	.
=39	=39	=39	=39	=39
0r	2D	2F	2d]	2f]
.	2E	2G	1c	1e
.	1F	1A	.	.
.	.	.	4B	2d
.	.	.	4A	.
=40	=40	=40	=40	=40
1r	2E	2G	2B	1e
.	2.A	2.c	2A	.
1A	.	.	2.e	1r
.	4B	4d	.	.
.	2c	[2e	.	.
.	.	.	4f	.
=41	=41	=41	=41	=41
2G	2B	4e]	1g	0r
.	.	4d	.	.
2E	2e	2c	.	.
2G	2d	2B	2r	.
2A	[2c	2e	[2a	.
=42	=42	=42	=42	=42
2F	2c]	1d	2a]	1r
2G	2B	.	2g	.
1A	1c	2c	2.e	2r
.	.	2A	.	2a
.	.	.	4d	.
=43	=43	=43	=43	=43
2E	0r	2B	4e	2g
.	.	.	4f	.
2.c	.	2.e	2g	2e
.	.	.	2e	2g
4B	.	4d	.	.
[2A	.	[2c	[2f	2a
=44	=44	=44	=44	=44
4A]	0r	2c]	2f]	2f
4G	.	.	.	.
2E	.	2B	1e	2g
1F	.	1A	.	1a
.	.	.	2d	.
=45	=45	=45	=45	=45
4C	2r	2r	1e	[0g
4D	.	.	.	.
4E	2e	2c	.	.
4F	.	.	.	.
1G	2d	2B	2r	.
.	2B	2G	[2d	.
=46	=46	=46	=46	=46
2r	2d	2B	2d]	0g]
2C	2e	1c	2c	.
2C	2c	.	2e	.
2G	2d	2B	2d	.
=47	=47	=47	=47	=47
2C	1e	1c	[0g	0r
1c	.	.	.	.
.	1d	1G	.	.
2B	.	.	.	.
=48	=48	=48	=48	=48
2c	1c	2r	0g]	2r
2C	.	2e	.	2cc
[1G	1r	2d	.	2b
.	.	2B	.	2g
=49	=49	=49	=49	=49
2G]	1r	2d	1G	2b
2E	.	2e	.	2cc
1F	2r	2c	1A	1a
.	2A	2d	.	.
=50	=50	=50	=50	=50
1E	2G	2.e	1B	2r
.	2E	.	.	1g
.	.	8d	.	.
.	.	8c	.	.
1r	2G	2B	1e	.
.	2A	2c	.	2e
=51	=51	=51	=51	=51
2r	2F	2A	2d	2a
2E	2G	2e	2B	2g
2D	[1A	1r	2d	2f
2C	.	.	2e	[2e
=52	=52	=52	=52	=52
1F	1A]	2r	2c	2e]
.	.	1A	2d	2d
1E	2r	.	[1e	2c
.	2e	2G#	.	2B
=53	=53	=53	=53	=53
2r	2c	1A	0e]	4A
.	.	.	.	4B
2A	2A	.	.	4c
.	.	.	.	4d
2G	2B	1E	.	4e
.	.	.	.	4f
2E	2e	.	.	4g
.	.	.	.	4a
=54	=54	=54	=54	=54
2G	2d	1r	2r	2b
2A	2c	.	1a	1cc
2F	1d	2r	.	.
2G	.	2d	2g	2b
=55	=55	=55	=55	=55
1A	0r	2c	1e	2a
.	.	2A	.	2.cc
2.F	.	2c	1f	.
.	.	.	.	4b
.	.	2d	.	[2a
4D	.	.	.	.
=56	=56	=56	=56	=56
1E	1r	2B	1e	2a]
.	.	2c	.	2g
1D	2r	2.d	1A	1f
.	2A	.	.	.
.	.	4c	.	.
=57	=57	=57	=57	=57
1E	2G	1.B	2r	4e
.	.	.	.	4f
.	2E	.	2e	4g
.	.	.	.	4a
2E	2G	.	4e	2b
.	.	.	4d	.
[2A	2A	2A	4c	2cc
.	.	.	4B	.
=58	=58	=58	=58	=58
2A]	2c	2.e	2A	2a
2G#	2B	.	2E	2b
.	.	4d	.	.
1A	1A	4c	1e	1cc
.	.	4B	.	.
.	.	[2A	.	.
=59	=59	=59	=59	=59
[0E	[0B	2A]	[0e	[0b
.	.	4G#	.	.
.	.	4F#	.	.
.	.	1G#	.	.
=60	=60	=60	=60	=60
1E_	1B_	[0G#	1e_	1b_
1E_	1B_	.	1e_	1b_
=61	=61	=61	=61	=61
0E]	0B]	0G#]	0e]	0b]
=62	=62	=62	=62	=62
1A	0r	0r	0r	0r
2A	.	.	.	.
2G	.	.	.	.
=63	=63	=63	=63	=63
2A	0r	0r	1e	0r
2E	.	.	.	.
2G	.	.	2e	.
2F	.	.	2d	.
=64	=64	=64	=64	=64
4E	0r	0r	2e	1r
4F	.	.	.	.
4G	.	.	2B	.
4E	.	.	.	.
2.F	.	.	2d	1a
.	.	.	2c	.
4E	.	.	.	.
=65	=65	=65	=65	=65
2D	0r	0r	1B	2a
2E	.	.	.	2g
2AA	.	.	4A	2a
.	.	.	4B	.
2A	.	.	4c	2e
.	.	.	4A	.
=66	=66	=66	=66	=66
2E	2r	0r	2B	2g
2F	2d	.	2A	2f
2G	2d	.	2B-	1e
2A	2c	.	2A	.
=67	=67	=67	=67	=67
1D	2d	2r	1A	1f
.	2A	2A	.	.
1E	2c	2A	1r	[1e
.	2B	2G	.	.
=68	=68	=68	=68	=68
1AA	4A	2A	2r	1e]
.	4B	.	.	.
.	4c	2E	2e	.
.	4A	.	.	.
1r	2B	2G	2e	2r
.	2A	2F	2d	2a
=69	=69	=69	=69	=69
0r	1B	4E	2e	2a
.	.	4F	.	.
.	.	4G	2B	2g
.	.	4E	.	.
.	4A	4F	2d	2a
.	4B	4G	.	.
.	4c	2A	2c	2e
.	4d	.	.	.
=70	=70	=70	=70	=70
1r	2e	2E	4B	2g
.	.	.	4c	.
.	2.A	2D	4d	2f
.	.	.	4A	.
2r	.	1A	4c	4e
.	4B	.	4d	4d
2A	2c	.	[2e	4c
.	.	.	.	4d
=71	=71	=71	=71	=71
2A	1B	1E	2e]	4e
.	.	.	.	4f
2G	.	.	2B	2.e
2A	1e	1r	2c	.
.	.	.	.	4f
2E	.	.	[2B	4g
.	.	.	.	4a
=72	=72	=72	=72	=72
2G	2.d	2r	4B]	2b
.	.	.	4G	.
2F	.	2d	2A	2.a
.	4A	.	.	.
1E	4c	2e	1r	.
.	4B	.	.	4g
.	4B	2B	.	[2g
.	8A	.	.	.
.	8G	.	.	.
=73	=73	=73	=73	=73
1D	0A	1.d	0r	2g]
.	.	.	.	4f
.	.	.	.	4e
1r	.	.	.	4f
.	.	.	.	4g
.	.	2c	.	[2a
=74	=74	=74	=74	=74
0r	2r	1B	1d	2a]
.	1d	.	.	2g#
.	.	1A	1e	1a
.	2c	.	.	.
=75	=75	=75	=75	=75
1G	2d	0r	2B	2.g
.	2B	.	2.d	.
.	.	.	.	4f
2A	2c	.	.	1e
.	.	.	4c	.
2E	2e	.	[2c	.
=76	=76	=76	=76	=76
1.G	1d	1r	2c]	0r
.	.	.	4B	.
.	.	.	4A	.
.	2G	1d	2B	.
2F	2A	.	2A	.
=77	=77	=77	=77	=77
1E	1B	2e	2G	1g
.	.	2B	2g	.
2D	1r	2d	2f	2a
2A	.	[2c	2c	2e
=78	=78	=78	=78	=78
2.G	0r	2c]	1d	1.g
.	.	2B	.	.
4F	.	.	.	.
2E	.	2c	[1c	.
2F	.	4A	.	2f
.	.	4B	.	.
=79	=79	=79	=79	=79
1C	2r	4c	1c]	0e
.	.	4d	.	.
.	2G	4e	.	.
.	.	4d	.	.
1r	2A	4c	2r	.
.	.	4B	.	.
.	2E	[2c	[2g	.
=80	=80	=80	=80	=80
1r	2.G	2c]	2g]	1d
.	.	2B	2g	.
.	4F	.	.	.
2r	4E	1c	2.g	1e
.	4D	.	.	.
2G	2C	.	.	.
.	.	.	4f	.
=81	=81	=81	=81	=81
2A	1.c	0r	1e	2r
2E	.	.	.	2.g
[1G	.	.	2d	.
.	.	.	.	4a
.	4B	.	[2g	4b
.	4A	.	.	4cc
=82	=82	=82	=82	=82
2G]	2B	1d	2g]	2dd
2F	2A	.	1a	2a
1E	2r	2e	.	2cc
.	2E	2B	2g	[2b
=83	=83	=83	=83	=83
1.D	2F	1.d	2.f	4b]
.	.	.	.	4a
.	2D	.	.	4dd
.	.	.	4e	4cc
.	2F	.	2d	4b
.	.	.	.	4a
2AA	[2E	2c	[2e	[2a
=84	=84	=84	=84	=84
0E	2E]	0B	2e]	2a]
.	2.e	.	2B	4g#
.	.	.	.	4f#
.	.	.	[1e	1g#
.	4d	.	.	.
.	2B	.	.	.
=85	=85	=85	=85	=85
0AA	2.c	0A	0e]	2.a
.	4B	.	.	4b
.	4A	.	.	1cc
.	4E	.	.	.
.	[2A	.	.	.
=86	=86	=86	=86	=86
[0E	2A]	[0B	[0e	[0b
.	1.G#	.	.	.
=87	=87	=87	=87	=87
1E_	[0G#	1B_	1e_	1b_
1E_	.	1B_	1e_	1b_
=88	=88	=88	=88	=88
0E]	0G#]	0B]	0e]	0b]
==	==	==	==	==
*-	*-	*-	*-	*-
!!!CDT: 1525/^1526/-1594/2/2
!!!OCY: Italia
!!!AGN: Mass (Paraphrase)
!!!AST: renaissance, vocal
!!!ASW: Gregorian Mass
!!!PWK: Masses, Book Mantuan I
!!!RNB: Cadence finals: A
!!!YOR: Le Opere Complete, v. 18, p. 42
!!!YOO: Rome, Italy: Fratelli Scalera
!!!END: 1992//
!!!EED: John Miller
!!!YEC: Copyright 2000, John Miller
!!!YEN: United States of America
!!!YEM: Rights to all derivative electronic formats reserved.
!!!YEM: Refer to licensing agreement for further details.
!!!YEM: This file must be accompanied by the licensing agreement.
!!!YEM: A copy of the licensing agreement may be found at http://www.music-cog.ohio-state.edu/HumdrumDatabases/Palestrina/license.txt
!!!EMD: converted to Humdrum by Bret Aarden
